X:2008
T:Polska efter Olle Falk
R:Polska
O:Offerdal, Jämtland
Z: Qaryn Eng 2011-05-28
M:3/4
L:1/8
K:D
|: A>G F<E E>A | A>c (3def f>e | e>f (3gag (3fed | (3cBA (3GAB B>A |
A>G F<E E>A | A>c (3def f>e | e>f (3gag (3fed |1 (3cBc d4 :|2 (3cBc d3 A |
|:d>f a<f a>f | g>g b>b a>g | e>f (3gag (3fed | (3cBA (3GAB B>A |
A>f a>f a>f | g>g b>b a>g | e>f (3gag (3fed |1 (3cBc d3 A :|2 (3cBc d4 |]
(:musicend:)
(:music:)
